X: 907
T: Snow Shoes
C:Kenny Smith
B: jims roots
M:4/4
L:1/8
Q: 1/4=100
K:D
V:1 
%N:From the CD " Studebaker"  TablEdited by Timothy R Lee
%Q:420
A,2 B,2 C2 | "D"DCDF "A"ECEG | "D"FEFA "G"G2 AG | "D"FABc dede | "A"cA2c A2 A,C |
"D"DCDF "A"ECEG | "D"FEFA "G"G2 AG | "D"FAdB "A"cdec | "D"dBAF D2A,C |
"D"DCDF "A"ECEG | "D"FEFA "G"G2 AG | "D"FABc dede | "A"cA2c A2 A,C |
"D"DCDF "A"E2GE | "D"FGAF "G"GABG | "D"AdcB "A"AGFE | "D"D4 AB d2 ||
"D"a2 f3g fe | "G"dBAF "Em"EFDE | "D"FA=fe decA | "A"zc A2 AB d2 |
"D"a2 f3g fe | "G"dBAF "Em"EFDE | "D"FdcB "G"ABdB | "D"AF D2 AB d2 |
"D"a2 f3g fe | "G"dBAF "Em"EFDE | "D"FA=fe decA | "A"zc A2 AB d2 |
"D"a2 f3g fe | "G"dBAF "Em"EFDE | "D"FdcB "G"ABdB | "D"AF D6|]
% abcbook-tune_id 6298c287b1e86fb28126d7c1


% abcbook-boost 0
% abcbook-tablature 
% abcbook-transpose 
% abcbook-lastupdated 1654178440618
% abcbook-soundfonts 
% abcbook-repeats 1


